src/icons/icons_set_01/058-favoris-plus.svg

<svg height="140" viewBox="0 0 140 140" width="140" xmlns="http://www.w3.org/2000/svg"><path d="m118.247347 69.6445969c2.625731-5.0114889 4.240685-10.4921664 4.752653-16.1290947v-1.7462603c-.052392-15.8821301-12.920109-28.7268809-28.7693917-28.7180436-9.818802.0319259-18.9464538 5.0688467-24.2226872 13.3668285-6.8277594-10.8362703-19.982846-15.8433779-32.2679976-12.2818907-12.2851517 3.5614872-20.7404482 14.8334832-20.7399235 27.6489809v1.7145101c1.710955 28.8767946 45.9423106 63.5003729 52.9762367 63.5003729 4.2140189 0 15.113436-8.636051 21.1968316-14.001832 9.2036547 4.575514 20.3423797 2.154636 26.8273967-5.8306374 6.485016-7.9852731 6.587522-19.4061932.246882-27.5070586zm-8.633986 16.0497193h-6.33687v6.3500372c0 1.3414385-1.085196 2.4288893-2.423853 2.4288893-1.3386571 0-2.4238531-1.0874508-2.4238531-2.4288893v-6.3500372h-6.3368704c-1.338657 0-2.4238529-1.0874508-2.4238529-2.4288893s1.0851959-2.4288893 2.4238529-2.4288893h6.3368704v-6.3500373c0-1.3414385 1.085196-2.4288892 2.4238531-2.4288892 1.338657 0 2.423853 1.0874507 2.423853 2.4288892v6.3500373h6.33687c1.338657 0 2.423853 1.0874508 2.423853 2.4288893s-1.085196 2.4288893-2.423853 2.4288893zm4.958601-19.6692406c-9.365507-7.1583807-22.699245-5.6363209-30.2181496 3.4494328-7.5189045 9.0857537-6.5441042 22.4980853 2.2091827 30.396266l.4277387.3651276c-9.5053056 8.255048-15.9372291 11.858694-17.0144971 11.93807-4.9744432-.238127-46.5443132-32.3851905-48.1285308-58.9600966v-1.4763837c-.0175998-13.1818405 10.6088863-23.8942979 23.7632641-23.9555156 9.6432605-.0215303 18.3433428 5.7989388 22.0206247 14.7320865.2454001.5960878.7172656 1.0699279 1.3116007 1.3170895.5943351.2471615 1.2623555.247357 1.8568345.0005432.5890521-.2564252 1.0590071-.7273567 1.3149006-1.3176327 4.3301753-10.6171622 15.5744816-16.6568779 26.7950783-14.3925868 11.2205972 2.2642911 19.2555552 12.1945188 19.1472322 23.6636412v1.3970082c-.368166 4.4529124-1.532623 8.8031581-3.437752 12.8429504z"/></svg>

<?xml version="1.0" encoding="UTF-8"?>
<svg width="140px" height="140px" viewBox="0 0 140 140" version="1.1" xmlns="http://www.w3.org/2000/svg" xmlns:xlink="http://www.w3.org/1999/xlink">
    <!-- Generator: Sketch 55 (78076) - https://sketchapp.com -->
    <title>058-favoris-plus</title>
    <desc>Created with Sketch.</desc>
    <g id="058-favoris-plus" stroke="none" stroke-width="1" fill="none" fill-rule="evenodd">
        <path d="M118.247347,69.6445969 C120.873078,64.633108 122.488032,59.1524305 123,53.5155022 L123,51.7692419 C122.947608,35.8871118 110.079891,23.042361 94.2306083,23.0511983 C84.4118063,23.0831242 75.2841545,28.120045 70.0079211,36.4180268 C63.1801617,25.5817565 50.0250751,20.5746489 37.7399235,24.1361361 C25.4547718,27.6976233 16.9994753,38.9696193 17,51.785117 L17,53.4996271 C18.710955,82.3764217 62.9423106,117 69.9762367,117 C74.1902556,117 85.0896727,108.363949 91.1730683,102.998168 C100.376723,107.573682 111.515448,105.152804 118.000465,97.1675306 C124.485481,89.1822575 124.587987,77.7613374 118.247347,69.660472 L118.247347,69.6445969 Z M109.613361,85.6943162 L103.276491,85.6943162 L103.276491,92.0443534 C103.276491,93.3857919 102.191295,94.4732427 100.852638,94.4732427 C99.5139809,94.4732427 98.4287849,93.3857919 98.4287849,92.0443534 L98.4287849,85.6943162 L92.0919145,85.6943162 C90.7532575,85.6943162 89.6680616,84.6068654 89.6680616,83.2654269 C89.6680616,81.9239884 90.7532575,80.8365376 92.0919145,80.8365376 L98.4287849,80.8365376 L98.4287849,74.4865003 C98.4287849,73.1450618 99.5139809,72.0576111 100.852638,72.0576111 C102.191295,72.0576111 103.276491,73.1450618 103.276491,74.4865003 L103.276491,80.8365376 L109.613361,80.8365376 C110.952018,80.8365376 112.037214,81.9239884 112.037214,83.2654269 C112.037214,84.6068654 110.952018,85.6943162 109.613361,85.6943162 L109.613361,85.6943162 Z M114.571962,66.0250756 C105.206455,58.8666949 91.872717,60.3887547 84.3538124,69.4745084 C76.8349079,78.5602621 77.8097082,91.9725937 86.5629951,99.8707744 L86.9907338,100.235902 C77.4854282,108.49095 71.0535047,112.094596 69.9762367,112.173972 C65.0017935,111.935845 23.4319235,79.7887815 21.8477059,53.2138754 L21.8477059,51.7374917 C21.8301061,38.5556512 32.4565922,27.8431938 45.61097,27.7819761 C55.2542305,27.7604458 63.9543128,33.5809149 67.6315947,42.5140626 C67.8769948,43.1101504 68.3488603,43.5839905 68.9431954,43.8311521 C69.5375305,44.0783136 70.2055509,44.0785091 70.8000299,43.8316953 C71.389082,43.5752701 71.859037,43.1043386 72.1149305,42.5140626 C76.4451058,31.8969004 87.6894121,25.8571847 98.9100088,28.1214758 C110.130606,30.3857669 118.165564,40.3159946 118.057241,51.785117 L118.057241,53.1821252 C117.689075,57.6350376 116.524618,61.9852833 114.619489,66.0250756 L114.571962,66.0250756 Z" id="Shape" fill="#000000" fill-rule="nonzero"></path>
    </g>
</svg>
